X:1
T: Old Wife Behind the Fire
N:
C:
S:
A:
O:
R:
M:4/4
K:G
%W:           A1
% voice 1 (1 lines, 30 notes)
K:G
M:4/4
L:1/16
c4 |B8 G4 B4 |A4 =F4 c4 A4 |B8 G4 B4 |A4 G4 g4 d4 |B8 G4 B4 |A4 =F4 c4 A4 |B2 c2 d4 A4 B4 |G8 G4 c4 |
%W:         A2
% voice 1 (1 lines, 29 notes)
B8 G4 B4 |A4 =F4 c4 A4 |B8 G4 B4 |A4 G4 g4 d4 |B8 G4 B4 |A4 =F4 c4 A4 |B2 c2 d4 A4 B4 |G8 G4 c4 |
%W:         B1
% voice 1 (1 lines, 32 notes)
B4 d8 d2 e2 |=f4 =F4 c4 A4 |B4 d8 e2 =f2 |g4 d4 g4 d4 |B4 d8 d2 e2 |=f4 =F4 c4 A4 |B2 c2 d4 A4 B4 |G8 G4 c4 |
%W:         B2
% voice 1 (1 lines, 31 notes)
B4 d8 d2 e2 |=f4 =F4 c4 A4 |B4 d8 e2 =f2 |g4 d4 g4 d4 |B4 d8 d2 e2 |=f4 =F4 c4 A4 |B2 c2 d4 A4 B4 |G8 G4 ||
